X: 35033
T: Rollicking Boys Of Tandragee, The
R: jig
M: 6/8
K: Dmixolydian
|:AGA ~D2 A,|AGA ~c2 G|{B}AGE ~C3|G,CC G,CC|
AGA ~D2 A,|AGA cge|dcA ~GEG|ADD D3:|
daf ~d3|Ade (3fga f|ged ceg|age ceg|
faA ~d2 A|cde g2e|dcA ~GEG|ADD D3|
daf ~d3|Ade (3fga f|ged ~c3|Acc Gcc|
AfA ~d2 A|cde g2e|dcA ~GEG|ADD D3||

